X:1
T:Peregrinus
T:Gaul
T:Peregrinus
C:Gaul
%%score { ( 1 2 ) | ( 3 4 ) }
L:1/8
Q:1/4=240
M:4/2
K:E
V:1 treble nm="Piano" snm="Pno."
V:2 treble 
V:3 bass 
V:4 bass 
V:1
 G4 | G6 F2 E4 F4 | G4 A4 B4 E4 | c4 F4 A4 B4 | G12 G4 | G6 F2 E4 e4 | d4 c4 B4 c4 | d4 B4 G4 ^A4 | %8
 B12 B4 | (B4 A4) E8 | G12 |] %11
V:2
 E4 | D6 D2 E4 E4 | E4 E4 E4 E4 | E4 E4 E4 D4 | E12 B,4 | ^B,6 B,2 C4 G4 | F4 F4 G4 G4 | %7
 F4 F4 F4 E4 | D12 E4 | E8 E8 | E12 |] %11
V:3
 B,4 | B,6 A,2 G,4 A,4 | B,4 C4 D4 D4 | C4 C4 B,4 B,4 | B,12 G,4 | G,6 G,2 G,4 B,4 | %6
 ^A,4 A,4 G,4 B,4 | B,4 D4 D4 C4 | B,12 D4 | C8 =C8 | [E,B,]12 |] %11
V:4
 E,4 | E,6 E,2 E,4 C,4 | B,,4 A,,4 G,,4 G,,4 | A,,4 A,,4 B,,4 B,,4 | E,12 E,4 | D,6 D,2 C,4 C,4 | %6
 D,4 D,4 E,4 ^E,4 | F,4 F,4 F,4 F,4 | B,,12 G,,4 | A,,8 A,,8 | E,,12 |] %11

